X: 27409
T: Mohill, The
R: reel
M: 4/4
K: Cmajor
CB,CD EDEG|cdeg dcAG|AcGc AcGe|gecd edd2|
CB,CD EDEG|cdeg dcAG|AcGE ~G3E|1 FEDF ECCG,:|2 FEDF ECC2||
|:egga gece|~f3e dcAc|~G3A cBcd|eaag egdg|
egga gece|~f3e dcAc|eg~g2 eaae|1 gedB cBcd:|2 gedB cGAB||
|:c2gc acgc|~g3a gede|c2gc acgc|GAcd ecdB|
c2gc acgc|~g3a gedg|eg~g2 eaae|1 gedB cGAB:|2 gedB cAGE||

